src/assets/Bike-AMC.svg

<svg width="80" height="36" viewBox="0 0 80 36" fill="none" xmlns="http://www.w3.org/2000/svg">
<path fill-rule="evenodd" clip-rule="evenodd" d="M18.9624 12.2656C18.1354 11.331 17.3111 10.3937 16.4841 9.45934C20.0541 9.95832 23.6213 10.4573 27.1912 10.956C27.4421 11.6426 27.6902 12.3262 27.9383 13.0126C30.6674 13.4814 33.3938 13.9472 36.1229 14.4157C36.2636 13.7761 36.4014 13.1366 36.542 12.4997C38.0692 10.9506 39.8086 9.58334 42.6674 9.17817C44.6936 9.77069 46.7198 10.3635 48.7459 10.956C48.9637 10.9397 49.1843 10.9258 49.4021 10.9092C49.4157 10.7687 49.4323 10.6281 49.4489 10.4875C49.0132 9.94173 48.5034 9.41529 47.7645 8.94649C47.4532 8.85268 47.1415 8.75913 46.8299 8.66532C46.2594 8.58265 46.3888 7.60128 47.0643 7.73099C47.5165 7.69781 47.9685 7.66736 48.4207 7.63717C48.5115 7.24561 48.6053 6.85703 48.6991 6.46845C48.6853 5.82888 48.6687 5.18931 48.6521 4.54975C48.4346 4.62697 48.2167 4.70692 47.9989 4.78415C47.7479 4.61311 47.4999 4.44207 47.2489 4.26858C47.3373 3.50502 47.4502 2.71372 47.7645 1.97789C48.2167 1.46776 48.8783 2.2645 49.6362 3.66219C49.4323 3.92677 49.231 4.19135 49.0271 4.45593C49.0739 5.29944 49.1209 6.14023 49.1677 6.98102C50.4936 7.5904 51.4696 8.4282 51.8802 9.64669C52.5804 9.02372 53.2807 8.40074 53.9836 7.77776C56.1669 10.7687 57.2615 13.4895 57.1622 15.9126C56.1036 15.6481 55.0422 15.3832 53.9836 15.1159C54.513 16.2544 55.0422 17.393 55.5744 18.5313C56.8038 21.0235 57.8211 23.3334 59.0505 25.8254C59.4614 26.4897 58.4248 27.3416 57.879 26.556C56.3518 23.3141 54.7638 20.0421 53.2366 16.8002C52.8755 17.142 52.5171 17.4865 52.1587 17.8283C50.7887 19.1847 50.0939 20.5411 49.9617 21.8971C49.6362 21.3818 49.3083 20.869 48.9803 20.3534C48.8093 20.698 48.6385 21.04 48.4647 21.3818C48.7157 21.7098 48.9637 22.0377 49.2145 22.3632C49.358 23.0991 49.3662 23.7 49.355 24.2816C48.9637 25.4202 48.5751 26.556 48.1863 27.6946C47.7479 28.5269 46.9843 28.9294 46.0802 29.1445C42.0912 29.1747 38.1023 29.2051 34.1106 29.2383C32.1781 28.5821 30.2456 27.9287 28.3132 27.2728C25.3993 25.7318 22.4855 24.1881 19.5689 22.6444C19.9135 21.6932 20.2553 20.7423 20.5999 19.7938C21.0658 19.7938 21.5344 19.7938 22.0003 19.7938C24.7295 21.3046 27.4559 22.8152 30.185 24.3287C30.9321 24.2349 31.6791 24.1411 32.429 24.0475C32.2883 23.4547 32.1478 22.8619 32.0072 22.2721C32.5365 22.4432 33.0685 22.6139 33.5978 22.785C34.1271 22.785 34.6564 22.785 35.1857 22.785C34.9072 22.162 34.6261 21.5388 34.3449 20.9158C31.726 19.3253 29.1099 17.7348 26.491 16.1468C24.6523 14.9919 22.8108 13.8395 20.9721 12.6846C20.3793 12.7948 19.7894 12.9052 19.1967 13.0126C17.4352 14.8043 15.6737 16.599 13.9121 18.3907C15.0203 16.847 16.1257 15.3033 17.2312 13.7623C16.7488 13.746 16.2664 13.7294 15.7839 13.7155C15.7839 13.5116 15.7839 13.3103 15.7839 13.1064C16.4538 12.9658 17.1237 12.8252 17.7936 12.6846C18.1823 12.5468 18.5737 12.4062 18.9624 12.2656Z" fill="white"/>
<path fill-rule="evenodd" clip-rule="evenodd" d="M58.5329 20.9922C61.4855 20.9922 63.8782 23.3851 63.8782 26.3374C63.8782 29.2897 61.4855 31.6826 58.5329 31.6826C55.5805 31.6826 53.1878 29.2897 53.1878 26.3374C53.1878 23.3851 55.5805 20.9922 58.5329 20.9922ZM58.5329 18.7869C62.7038 18.7869 66.0863 22.1666 66.0863 26.3374C66.0863 30.5082 62.7038 33.8906 58.5329 33.8906C54.362 33.8906 50.9824 30.5082 50.9824 26.3374C50.9824 22.1666 54.362 18.7869 58.5329 18.7869Z" fill="white"/>
<path fill-rule="evenodd" clip-rule="evenodd" d="M58.5325 29.2422C60.1315 29.2422 61.4381 27.9356 61.4381 26.3367C61.4381 24.7378 60.1315 23.4312 58.5325 23.4312C56.9339 23.4312 55.627 24.7378 55.627 26.3367C55.627 27.9356 56.9339 29.2422 58.5325 29.2422Z" fill="white"/>
<path fill-rule="evenodd" clip-rule="evenodd" d="M23.0781 20.4354C26.2208 20.4354 28.7707 22.9855 28.7707 26.1278C28.7707 29.2732 26.2208 31.8203 23.0781 31.8203C19.9327 31.8203 17.3828 29.2732 17.3828 26.1278C17.3828 22.9855 19.9327 20.4354 23.0781 20.4354ZM23.0781 18.084C27.5192 18.084 31.1222 21.687 31.1222 26.1278C31.1222 30.5716 27.5192 34.1719 23.0781 34.1719C18.6343 34.1719 15.0312 30.5716 15.0312 26.1278C15.0312 21.687 18.6343 18.084 23.0781 18.084Z" fill="white"/>
<path fill-rule="evenodd" clip-rule="evenodd" d="M23.0794 28.9883C24.6507 28.9883 25.9354 27.7037 25.9354 26.1295C25.9354 24.5556 24.6507 23.2738 23.0794 23.2738C21.5053 23.2738 20.2207 24.5556 20.2207 26.1295C20.2207 27.7037 21.5053 28.9883 23.0794 28.9883Z" fill="white"/>
</svg>

<svg xmlns="http://www.w3.org/2000/svg" width="80" height="36" fill="none" viewBox="0 0 80 36"><path fill="#fff" fill-rule="evenodd" d="M18.962 12.266c-.827-.935-1.65-1.872-2.478-2.807l10.707 1.497q.377 1.029.747 2.057 4.093.7 8.185 1.403.209-.961.419-1.916c1.527-1.55 3.267-2.917 6.125-3.322l6.079 1.778q.328-.023.656-.047.021-.21.047-.421c-.436-.546-.946-1.073-1.684-1.542l-.935-.28c-.57-.083-.441-1.065.234-.935q.679-.05 1.357-.094.136-.586.278-1.169-.021-.96-.047-1.918-.326.117-.653.234-.376-.255-.75-.515c.088-.764.201-1.555.515-2.291.453-.51 1.114.287 1.872 1.684q-.304.398-.609.794l.14 2.525c1.327.61 2.303 1.447 2.713 2.666q1.049-.934 2.104-1.87c2.183 2.992 3.277 5.712 3.178 8.136-1.058-.265-2.12-.53-3.178-.797q.793 1.708 1.59 3.415c1.23 2.492 2.247 4.802 3.477 7.294.41.665-.626 1.517-1.172.731-1.527-3.242-3.115-6.514-4.642-9.756q-.541.514-1.078 1.028c-1.37 1.357-2.065 2.713-2.197 4.07q-.49-.773-.982-1.545-.254.517-.515 1.029.374.493.75.981c.143.736.151 1.337.14 1.919q-.586 1.706-1.169 3.413c-.438.832-1.202 1.234-2.106 1.45q-5.983.044-11.97.093-2.898-.983-5.797-1.965-4.37-2.312-8.744-4.629.516-1.427 1.03-2.85H22q4.093 2.265 8.185 4.535l2.244-.282-.422-1.775 1.59.513h1.589q-.419-.934-.841-1.87-3.927-2.386-7.854-4.768-2.76-1.731-5.519-3.462-.888.165-1.775.328-2.642 2.688-5.285 5.378l3.32-4.629q-.725-.025-1.448-.046v-.61l2.01-.421q.584-.208 1.168-.42" clip-rule="evenodd"/><path fill="#fff" fill-rule="evenodd" d="M58.533 20.992a5.345 5.345 0 1 1 0 10.69 5.345 5.345 0 0 1 0-10.69m0-2.205a7.552 7.552 0 1 1-7.55 7.55 7.55 7.55 0 0 1 7.55-7.55" clip-rule="evenodd"/><path fill="#fff" fill-rule="evenodd" d="M58.533 29.242a2.913 2.913 0 0 0 2.905-2.905 2.913 2.913 0 0 0-2.906-2.906 2.913 2.913 0 0 0-2.905 2.906 2.913 2.913 0 0 0 2.905 2.905M23.078 20.435a5.692 5.692 0 1 1 0 11.385 5.693 5.693 0 1 1 0-11.385m0-2.351a8.044 8.044 0 0 1 0 16.088 8.045 8.045 0 1 1 0-16.088" clip-rule="evenodd"/><path fill="#fff" fill-rule="evenodd" d="M23.08 28.988a2.864 2.864 0 0 0 2.855-2.858 2.86 2.86 0 0 0-2.856-2.856 2.86 2.86 0 0 0-2.858 2.855 2.865 2.865 0 0 0 2.858 2.86" clip-rule="evenodd"/></svg>
